!!!!SEGMENT: pl-kozmzk--mzk-m-159--040_walczynski-franciszek--praeludia-organi-op-5-adagio.krn
!!!cenid: 18xx:2783
!!!COM: Walczyński, Franciszek
!!!COM-rismID: pe30021989
!!!CDT: ~1852-1937
!!!CNT: Polish
!!!GTL: Praeludia organi op. 5
!!!OTL: 40. Adagio
!!!PDT: 1894
!!!AGN: Secular; Prelude
!!!SMS-siglum: PL-KOZmzk
!!!SMS-shelfmark: mzk/m/159
!!!SMS-shelfwork: 040 G
!!!SMS-variant:
!!!SMS-altvar:
!!!NIFC-rismSourceID: 1001118843
!!!NIFC-islandoraID: pl-kozmzk:2265
!!!URL-pdf-islandora: https://repozytorium.nifc.pl/islandora/object/pl-kozmzk%3A2265/datastream/PDF/view
!!!URL-scan: https://polish.musicsources.pl/pl/lokalizacje/galeria/druki-muzyczne/7406 @EN{Scan on Polish Music Sources Website} @PL{Skany w portalu Dziedzictwo Muzyki Polskiej w otwartym dostępie}
!!!ONB-nifc: UWAGA: numeracja plików zgodna z numeracją źrodłową
!!!OMD: 40. Adagio.
!!!AIN: 2 organ
!!!key: G-
**kern	**kern	**dynam
*part2	*part1	*part1
*staff2	*staff1	*
*Iorgan	*Iorgan	*
*I"Organo	*I"Organo	*
*clefF4	*clefG2	*
*k[b-e-a-d-g-c-]	*k[b-e-a-d-g-c-]	*
*G-:	*G-:	*
*M3/4	*M3/4	*
=1	=1	=1
*^	*	*
!LO:TX:b:i:t=Ped.	!	!	!
(4G-/ 4D-/	(4GG-\	(>(2.B-/	pp
4A-/ 4Dn/	4FF\	.	.
4G-/ 4E-/	4EE-\	.	.
=2	=2	=2	=2
2Gn/ 2F-X/	[2.AA-\	(>2d-/	.
4A-/ 4E-/)	.	4c-/))	.
=3	=3	=3	=3
4A-/ 4G-X/	4AA-\]	4c-/	<
4A-/ 4F/	4BB-\	4d-/	.
4A-/ 4E-/	4Cn\	4e-/	[[
=4	=4	=4	=4
*	*	*^	*
[2A-/	2.D-\	(2g-/	(2e-\	>
8A-/L]	.	4f/))	4d-\)	.
8c-X/J)	.	.	.	]
=5	=5	=5	=5	=5
!LO:TX:b:i:t=Man.	!	!	!	!
(2B-/	(4G-\	(4g-/	(2d-\	f
.	2F-X\	4a-/	.	.
4d-/	.	[4b-/	[4g-\	.
=6	=6	=6	=6	=6
2c-/	2E-\	4b-/]	2.g-\_	.
.	.	4cc-/	.	.
4B--/	4E--\	4ccn/	.	.
=7	=7	=7	=7	=7
!LO:N:acc=n-	!	!	!	!
4B-/	2.D-\	4dd-/	4g-\]	.
4d-/	.	4b-/	4.g-\	.
[4c-/	.	4a-/	.	.
.	.	.	8f\	.
=8	=8	=8	=8	=8
4c-/]	2.GG-\)	2.g-/)	2.d-\)	.
2B-/)	.	.	.	.
=9	=9	=9	=9	=9
!LO:TX:b:i:t=Ped	!	!	!	!
(4d-/	[2.GG-\	([2.g-/	(4f\	p
8B-/L	.	.	8d-\L	.
8c-/J	.	.	8e-\J	.
4d-/	.	.	4f\)	.
=10	=10	=10	=10	=10
4c-/	2.GG-\]	2.g-/]	2.e-\	.
4G-/	.	.	.	.
4c-/)	.	.	.	.
=11	=11	=11	=11	=11
!	!	!	!	!LO:HP:a
(4c-/	[2.GG-\	[2.g-/	(4e--\	<
8A-/L	.	.	8c-\L	.
8B-/J	.	.	8d-\J	[
!	!	!	!	!LO:HP:a
[4c-/	.	.	4e--\	>
=12	=12	=12	=12	=12
4c-/]	2.GG-;\]	2.g-;/])	2.d-\)	] pp
2B-/)	.	.	.	.
*v	*v	*	*	*
*	*v	*v	*
==	==	==
*-	*-	*-
!!!system-decoration: {(s1,s2)}
!!!EED: Andrzej Borzym
!!!EEV: 2021-08-08
!!!RDF**kern: > = above
!!!RDF**kern: < = below
!!!ENC: Krzysztof Stępień
!!!END: 2021-07-26
